icon-themes/sifr_svg/cmd/lc_beziercutline.svg

<svg viewBox="0 0 24 24" xmlns="http://www.w3.org/2000/svg"><g fill="#555753"><path d="m4 14v2h-2v2h2v2h6v-6zm10 0v6h6v-2h2v-2h-2v-2zm-8 2h2v2h-2zm10 0h2v2h-2z"/><path d="m9 4v2h-6v2h6v2h6v-2h6v-2h-6v-2zm2 2h2v2h-2z" opacity=".35"/></g></svg>

<svg xmlns="http://www.w3.org/2000/svg" viewBox="0 0 24 24">
  <path
     style="fill:#555753"
     d="M 4 14 L 4 16 L 2 16 L 2 18 L 4 18 L 4 20 L 10 20 L 10 14 L 4 14 z M 14 14 L 14 20 L 20 20 L 20 18 L 22 18 L 22 16 L 20 16 L 20 14 L 14 14 z M 6 16 L 8 16 L 8 18 L 6 18 L 6 16 z M 16 16 L 18 16 L 18 18 L 16 18 L 16 16 z "
     />
  <path
     style="opacity:0.35;fill:#555753"
     d="M 9,4 V 6 H 3 v 2 h 6 v 2 h 6 V 8 h 6 V 6 H 15 V 4 Z m 2,2 h 2 v 2 h -2 z"
     />
</svg>
